Newaita-dark/apps/128/mplayer.svg

<?xml version="1.0" encoding="UTF-8"?>
<svg xmlns="http://www.w3.org/2000/svg" xmlns:xlink="http://www.w3.org/1999/xlink" width="128pt" height="128pt" viewBox="0 0 128 128" version="1.1">
<defs>
<linearGradient id="linear0" gradientUnits="userSpaceOnUse" x1="254" y1="233.5" x2="254" y2="254.666672" gradientTransform="matrix(0.250024,0,0,0.250024,-0.0000152602,53.75514)">
<stop offset="0" style="stop-color:rgb(0%,0%,0%);stop-opacity:0.27451;"/>
<stop offset="1" style="stop-color:rgb(0%,0%,0%);stop-opacity:0;"/>
</linearGradient>
<radialGradient id="radial0" gradientUnits="userSpaceOnUse" cx="450.908936" cy="189.579361" fx="450.908936" fy="189.579361" r="21.166656" gradientTransform="matrix(0.000000696681,-0.31253,-0.562554,-0.000000406154,212.49172,254.38133)">
<stop offset="0" style="stop-color:rgb(0%,0%,0%);stop-opacity:0.313725;"/>
<stop offset="0.222222" style="stop-color:rgb(0%,0%,0%);stop-opacity:0.27451;"/>
<stop offset="1" style="stop-color:rgb(0%,0%,0%);stop-opacity:0;"/>
</radialGradient>
<radialGradient id="radial1" gradientUnits="userSpaceOnUse" cx="450.908936" cy="189.579361" fx="450.908936" fy="189.579361" r="21.166656" gradientTransform="matrix(-0.000000696681,0.31253,0.562554,0.000000406154,-84.818081,-30.109915)">
<stop offset="0" style="stop-color:rgb(0%,0%,0%);stop-opacity:0.313725;"/>
<stop offset="0.222222" style="stop-color:rgb(0%,0%,0%);stop-opacity:0.27451;"/>
<stop offset="1" style="stop-color:rgb(0%,0%,0%);stop-opacity:0;"/>
</radialGradient>
<radialGradient id="radial2" gradientUnits="userSpaceOnUse" cx="450.908936" cy="189.579361" fx="450.908936" fy="189.579361" r="21.166656" gradientTransform="matrix(-0.000000696681,-0.31253,0.562554,-0.000000406154,-84.818081,254.38133)">
<stop offset="0" style="stop-color:rgb(0%,0%,0%);stop-opacity:0.313725;"/>
<stop offset="0.222222" style="stop-color:rgb(0%,0%,0%);stop-opacity:0.27451;"/>
<stop offset="1" style="stop-color:rgb(0%,0%,0%);stop-opacity:0;"/>
</radialGradient>
<radialGradient id="radial3" gradientUnits="userSpaceOnUse" cx="450.908936" cy="189.579361" fx="450.908936" fy="189.579361" r="21.166656" gradientTransform="matrix(0.000000696681,0.31253,-0.562554,0.000000406154,212.491714,-30.109917)">
<stop offset="0" style="stop-color:rgb(0%,0%,0%);stop-opacity:0.313725;"/>
<stop offset="0.222222" style="stop-color:rgb(0%,0%,0%);stop-opacity:0.27451;"/>
<stop offset="1" style="stop-color:rgb(0%,0%,0%);stop-opacity:0;"/>
</radialGradient>
<linearGradient id="linear1" gradientUnits="userSpaceOnUse" x1="254" y1="233.5" x2="254" y2="-168.666656" gradientTransform="matrix(0.250024,0,0,0.250024,0,53.755133)">
<stop offset="0" style="stop-color:rgb(25.882353%,64.705882%,96.078431%);stop-opacity:1;"/>
<stop offset="1" style="stop-color:rgb(39.215686%,70.980392%,96.470588%);stop-opacity:1;"/>
</linearGradient>
<linearGradient id="linear2" gradientUnits="userSpaceOnUse" x1="370.416656" y1="159.416672" x2="370.416656" y2="180.583328" gradientTransform="matrix(1,0,0,1,0,10.583338)">
<stop offset="0" style="stop-color:rgb(87.843137%,87.843137%,87.843137%);stop-opacity:1;"/>
<stop offset="1" style="stop-color:rgb(98.039216%,98.039216%,98.039216%);stop-opacity:1;"/>
</linearGradient>
<linearGradient id="linear3" gradientUnits="userSpaceOnUse" x1="211.666672" y1="159.416672" x2="211.666672" y2="180.583328" gradientTransform="matrix(1,0,0,1,0,10.583338)">
<stop offset="0" style="stop-color:rgb(89.803922%,22.352941%,20.784314%);stop-opacity:1;"/>
<stop offset="1" style="stop-color:rgb(93.72549%,32.54902%,31.372549%);stop-opacity:1;"/>
</linearGradient>
<linearGradient id="linear4" gradientUnits="userSpaceOnUse" x1="285.75" y1="138.25" x2="285.75" y2="201.75" gradientTransform="matrix(1,0,0,1,26.458323,10.583338)">
<stop offset="0" style="stop-color:rgb(87.843137%,87.843137%,87.843137%);stop-opacity:1;"/>
<stop offset="1" style="stop-color:rgb(98.039216%,98.039216%,98.039216%);stop-opacity:1;"/>
</linearGradient>
<linearGradient id="linear5" gradientUnits="userSpaceOnUse" x1="254" y1="53.583332" x2="254" y2="-105.166656" gradientTransform="matrix(0.250024,0,0,0.250024,-1.335963,54.423952)">
<stop offset="0" style="stop-color:rgb(87.843137%,87.843137%,87.843137%);stop-opacity:1;"/>
<stop offset="1" style="stop-color:rgb(96.078431%,96.078431%,96.078431%);stop-opacity:1;"/>
</linearGradient>
</defs>
<g id="surface1">
<path style=" stroke:none;fill-rule:nonzero;fill:url(#linear0);" d="M 20.507812 112.136719 L 107.167969 112.136719 L 107.167969 117.429688 L 20.507812 117.429688 Z M 20.507812 112.136719 "/>
<path style=" stroke:none;fill-rule:nonzero;fill:url(#radial0);" d="M 107.167969 112.136719 L 117.75 112.136719 L 117.75 106.84375 L 107.167969 106.84375 Z M 107.167969 112.136719 "/>
<path style=" stroke:none;fill-rule:nonzero;fill:url(#radial1);" d="M 20.507812 112.136719 L 9.921875 112.136719 L 9.921875 117.429688 L 20.507812 117.429688 Z M 20.507812 112.136719 "/>
<path style=" stroke:none;fill-rule:nonzero;fill:url(#radial2);" d="M 20.507812 112.136719 L 9.921875 112.136719 L 9.921875 106.84375 L 20.507812 106.84375 Z M 20.507812 112.136719 "/>
<path style=" stroke:none;fill-rule:nonzero;fill:url(#radial3);" d="M 107.167969 112.136719 L 117.75 112.136719 L 117.75 117.429688 L 107.167969 117.429688 Z M 107.167969 112.136719 "/>
<path style=" stroke:none;fill-rule:nonzero;fill:url(#linear1);" d="M 13.230469 11.585938 L 113.78125 11.585938 C 116.703125 11.585938 119.074219 13.953125 119.074219 16.875 L 119.074219 106.84375 C 119.074219 109.765625 116.703125 112.136719 113.78125 112.136719 L 13.230469 112.136719 C 10.308594 112.136719 7.9375 109.765625 7.9375 106.84375 L 7.9375 16.875 C 7.9375 13.953125 10.308594 11.585938 13.230469 11.585938 Z M 13.230469 11.585938 "/>
<path style="fill-rule:nonzero;fill:url(#linear2);stroke-width:3;stroke-linecap:round;stroke-linejoin:miter;stroke:rgb(12.941177%,12.941177%,12.941177%);stroke-opacity:1;stroke-miterlimit:4;" d="M 74.086675 169.994485 L 433.911689 169.994485 C 439.754881 169.994485 444.504427 174.744031 444.504427 180.587223 C 444.504427 186.430415 439.754881 191.164338 433.911689 191.164338 L 74.086675 191.164338 C 68.243483 191.164338 63.493937 186.430415 63.493937 180.587223 C 63.493937 174.744031 68.243483 169.994485 74.086675 169.994485 Z M 74.086675 169.994485 " transform="matrix(0.250024,0,0,0.250024,0,53.755133)"/>
<path style="fill-rule:nonzero;fill:url(#linear3);stroke-width:3;stroke-linecap:round;stroke-linejoin:miter;stroke:rgb(12.941177%,12.941177%,12.941177%);stroke-opacity:1;stroke-miterlimit:4;" d="M 74.086675 169.994485 L 338.670784 169.994485 C 344.513976 169.994485 349.247898 174.29095 349.247898 179.602942 L 349.247898 181.571504 C 349.247898 186.867874 344.513976 191.164338 338.670784 191.164338 L 74.086675 191.164338 C 68.243483 191.164338 63.493937 186.867874 63.493937 181.571504 L 63.493937 179.602942 C 63.493937 174.29095 68.243483 169.994485 74.086675 169.994485 Z M 74.086675 169.994485 " transform="matrix(0.250024,0,0,0.250024,0,53.755133)"/>
<path style="fill-rule:nonzero;fill:url(#linear4);stroke-width:3;stroke-linecap:round;stroke-linejoin:miter;stroke:rgb(12.941177%,12.941177%,12.941177%);stroke-opacity:1;stroke-miterlimit:4;" d="M 322.797299 148.840255 C 340.326875 148.840255 354.544268 163.042024 354.544268 180.587223 C 354.544268 198.116799 340.326875 212.334192 322.797299 212.334192 C 305.2521 212.334192 291.034708 198.116799 291.034708 180.587223 C 291.034708 163.042024 305.2521 148.840255 322.797299 148.840255 Z M 322.797299 148.840255 " transform="matrix(0.250024,0,0,0.250024,0,53.755133)"/>
<path style=" stroke:none;fill-rule:nonzero;fill:rgb(100%,100%,100%);fill-opacity:0.392157;" d="M 13.230469 11.585938 C 10.296875 11.585938 7.9375 13.945312 7.9375 16.875 L 7.9375 18.199219 C 7.9375 15.269531 10.296875 12.90625 13.230469 12.90625 L 113.78125 12.90625 C 116.714844 12.90625 119.074219 15.269531 119.074219 18.199219 L 119.074219 16.875 C 119.074219 13.945312 116.714844 11.585938 113.78125 11.585938 Z M 13.230469 11.585938 "/>
<path style=" stroke:none;fill-rule:nonzero;fill:rgb(0%,0%,0%);fill-opacity:0.235294;" d="M 13.230469 112.136719 C 10.296875 112.136719 7.9375 109.777344 7.9375 106.84375 L 7.9375 105.519531 C 7.9375 108.453125 10.296875 110.8125 13.230469 110.8125 L 113.78125 110.8125 C 116.714844 110.8125 119.074219 108.453125 119.074219 105.519531 L 119.074219 106.84375 C 119.074219 109.777344 116.714844 112.136719 113.78125 112.136719 Z M 13.230469 112.136719 "/>
<path style=" stroke:none;fill-rule:nonzero;fill:url(#linear5);" d="M 51.675781 28.144531 C 50.1875 28.09375 48.953125 29.285156 48.953125 30.777344 L 48.953125 65.175781 C 48.953125 67.214844 51.171875 68.480469 52.925781 67.441406 L 82.03125 50.242188 C 83.757812 49.222656 83.757812 46.726562 82.03125 45.707031 L 52.925781 28.507812 C 52.546875 28.285156 52.117188 28.160156 51.675781 28.144531 Z M 51.675781 28.144531 "/>
<path style=" stroke:none;fill-rule:nonzero;fill:rgb(100%,100%,100%);fill-opacity:0.588235;" d="M 51.535156 28.144531 C 50.109375 28.167969 48.953125 29.332031 48.953125 30.777344 L 48.953125 32.085938 C 48.953125 30.59375 50.1875 29.402344 51.675781 29.453125 C 52.117188 29.46875 52.546875 29.59375 52.925781 29.816406 L 82.03125 47.015625 C 82.679688 47.398438 83.082031 47.988281 83.246094 48.628906 C 83.515625 47.558594 83.109375 46.34375 82.03125 45.707031 L 52.925781 28.507812 C 52.546875 28.285156 52.117188 28.160156 51.675781 28.144531 C 51.628906 28.140625 51.582031 28.140625 51.535156 28.144531 Z M 51.535156 28.144531 "/>
<path style=" stroke:none;fill-rule:nonzero;fill:rgb(0%,0%,0%);fill-opacity:0.235294;" d="M 51.535156 67.820312 C 50.109375 67.796875 48.953125 66.628906 48.953125 65.1875 L 48.953125 63.878906 C 48.953125 65.367188 50.1875 66.5625 51.675781 66.511719 C 52.117188 66.496094 52.546875 66.371094 52.925781 66.144531 L 82.03125 48.945312 C 82.679688 48.566406 83.082031 47.976562 83.246094 47.335938 C 83.515625 48.402344 83.109375 49.617188 82.03125 50.257812 L 52.925781 67.457031 C 52.546875 67.679688 52.117188 67.804688 51.675781 67.820312 C 51.628906 67.820312 51.582031 67.820312 51.535156 67.820312 Z M 51.535156 67.820312 "/>
<path style=" stroke:none;fill-rule:nonzero;fill:rgb(12.941177%,12.941177%,12.941177%);fill-opacity:1;" d="M 51.6875 27.769531 C 49.992188 27.710938 48.578125 29.078125 48.578125 30.777344 L 48.578125 65.175781 C 48.578125 67.484375 51.125 68.941406 53.117188 67.765625 L 82.222656 50.566406 C 84.179688 49.410156 84.179688 46.542969 82.222656 45.386719 L 53.117188 28.1875 C 52.683594 27.929688 52.191406 27.785156 51.6875 27.769531 Z M 51.660156 28.519531 C 52.039062 28.53125 52.410156 28.640625 52.734375 28.832031 L 81.839844 46.03125 C 83.335938 46.914062 83.335938 49.035156 81.839844 49.917969 L 52.734375 67.121094 C 51.214844 68.019531 49.328125 66.941406 49.328125 65.175781 L 49.328125 30.777344 C 49.328125 29.492188 50.378906 28.476562 51.660156 28.519531 Z M 51.660156 28.519531 "/>
<path style=" stroke:none;fill-rule:nonzero;fill:rgb(0%,0%,0%);fill-opacity:0.470588;" d="M 7.9375 83.617188 L 119.074219 83.617188 L 119.074219 85.046875 L 7.9375 85.046875 Z M 7.9375 83.617188 "/>
<path style=" stroke:none;fill-rule:nonzero;fill:rgb(0%,0%,0%);fill-opacity:0.235294;" d="M 7.9375 82.367188 L 119.074219 82.367188 L 119.074219 83.722656 L 7.9375 83.722656 Z M 7.9375 82.367188 "/>
<path style=" stroke:none;fill-rule:nonzero;fill:rgb(97.254902%,97.254902%,97.254902%);fill-opacity:0.392157;" d="M 7.9375 85.011719 L 119.074219 85.011719 L 119.074219 86.371094 L 7.9375 86.371094 Z M 7.9375 85.011719 "/>
<path style=" stroke:none;fill-rule:nonzero;fill:rgb(12.941177%,12.941177%,12.941177%);fill-opacity:1;" d="M 13.230469 11.210938 C 10.097656 11.210938 7.5625 13.742188 7.5625 16.875 L 7.5625 106.84375 C 7.5625 109.976562 10.097656 112.511719 13.230469 112.511719 L 113.78125 112.511719 C 116.914062 112.511719 119.449219 109.976562 119.449219 106.84375 L 119.449219 16.875 C 119.449219 13.742188 116.914062 11.210938 113.78125 11.210938 Z M 13.230469 11.960938 L 113.78125 11.960938 C 116.511719 11.960938 118.699219 14.144531 118.699219 16.875 L 118.699219 106.84375 C 118.699219 109.574219 116.511719 111.761719 113.78125 111.761719 L 13.230469 111.761719 C 10.5 111.761719 8.3125 109.574219 8.3125 106.84375 L 8.3125 16.875 C 8.3125 14.144531 10.5 11.960938 13.230469 11.960938 Z M 13.230469 11.960938 "/>
</g>
</svg>

<svg xmlns="http://www.w3.org/2000/svg" width="128pt" height="128pt" viewBox="0 0 128 128"><defs><linearGradient id="a" gradientUnits="userSpaceOnUse" x1="254" y1="233.5" x2="254" y2="254.667" gradientTransform="matrix(.25002 0 0 .25002 0 53.755)"><stop offset="0" stop-opacity=".275"/><stop offset="1" stop-opacity="0"/></linearGradient><radialGradient id="b" gradientUnits="userSpaceOnUse" cx="450.909" cy="189.579" fx="450.909" fy="189.579" r="21.167" gradientTransform="matrix(0 -.31253 -.56255 0 212.492 254.381)"><stop offset="0" stop-opacity=".314"/><stop offset=".222" stop-opacity=".275"/><stop offset="1" stop-opacity="0"/></radialGradient><radialGradient id="c" gradientUnits="userSpaceOnUse" cx="450.909" cy="189.579" fx="450.909" fy="189.579" r="21.167" gradientTransform="matrix(0 .31253 .56255 0 -84.818 -30.11)"><stop offset="0" stop-opacity=".314"/><stop offset=".222" stop-opacity=".275"/><stop offset="1" stop-opacity="0"/></radialGradient><radialGradient id="d" gradientUnits="userSpaceOnUse" cx="450.909" cy="189.579" fx="450.909" fy="189.579" r="21.167" gradientTransform="matrix(0 -.31253 .56255 0 -84.818 254.381)"><stop offset="0" stop-opacity=".314"/><stop offset=".222" stop-opacity=".275"/><stop offset="1" stop-opacity="0"/></radialGradient><radialGradient id="e" gradientUnits="userSpaceOnUse" cx="450.909" cy="189.579" fx="450.909" fy="189.579" r="21.167" gradientTransform="matrix(0 .31253 -.56255 0 212.492 -30.11)"><stop offset="0" stop-opacity=".314"/><stop offset=".222" stop-opacity=".275"/><stop offset="1" stop-opacity="0"/></radialGradient><linearGradient id="f" gradientUnits="userSpaceOnUse" x1="254" y1="233.5" x2="254" y2="-168.667" gradientTransform="matrix(.25002 0 0 .25002 0 53.755)"><stop offset="0" stop-color="#42a5f5"/><stop offset="1" stop-color="#64b5f6"/></linearGradient><linearGradient id="g" gradientUnits="userSpaceOnUse" x1="370.417" y1="159.417" x2="370.417" y2="180.583" gradientTransform="translate(0 10.583)"><stop offset="0" stop-color="#e0e0e0"/><stop offset="1" stop-color="#fafafa"/></linearGradient><linearGradient id="h" gradientUnits="userSpaceOnUse" x1="211.667" y1="159.417" x2="211.667" y2="180.583" gradientTransform="translate(0 10.583)"><stop offset="0" stop-color="#e53935"/><stop offset="1" stop-color="#ef5350"/></linearGradient><linearGradient id="i" gradientUnits="userSpaceOnUse" x1="285.75" y1="138.25" x2="285.75" y2="201.75" gradientTransform="translate(26.458 10.583)"><stop offset="0" stop-color="#e0e0e0"/><stop offset="1" stop-color="#fafafa"/></linearGradient><linearGradient id="j" gradientUnits="userSpaceOnUse" x1="254" y1="53.583" x2="254" y2="-105.167" gradientTransform="matrix(.25002 0 0 .25002 -1.336 54.424)"><stop offset="0" stop-color="#e0e0e0"/><stop offset="1" stop-color="#f5f5f5"/></linearGradient></defs><path d="M20.508 112.137h86.66v5.293h-86.66zm0 0" fill="url(#a)"/><path d="M107.168 112.137h10.582v-5.293h-10.582zm0 0" fill="url(#b)"/><path d="M20.508 112.137H9.922v5.293h10.586zm0 0" fill="url(#c)"/><path d="M20.508 112.137H9.922v-5.293h10.586zm0 0" fill="url(#d)"/><path d="M107.168 112.137h10.582v5.293h-10.582zm0 0" fill="url(#e)"/><path d="M13.23 11.586h100.551a5.291 5.291 0 0 1 5.293 5.289v89.969a5.295 5.295 0 0 1-5.293 5.293H13.231a5.295 5.295 0 0 1-5.293-5.293V16.875a5.291 5.291 0 0 1 5.292-5.29zm0 0" fill="url(#f)"/><path d="M74.087 169.994h359.825c5.843 0 10.592 4.75 10.592 10.593s-4.75 10.577-10.592 10.577H74.087c-5.844 0-10.593-4.734-10.593-10.577s4.75-10.593 10.593-10.593zm0 0" transform="matrix(.25002 0 0 .25002 0 53.755)" fill="url(#g)" stroke-width="3" stroke-linecap="round" stroke="#212121"/><path d="M74.087 169.994H338.67c5.843 0 10.577 4.297 10.577 9.609v1.969c0 5.296-4.734 9.592-10.577 9.592H74.087c-5.844 0-10.593-4.296-10.593-9.592v-1.97c0-5.311 4.75-9.608 10.593-9.608zm0 0" transform="matrix(.25002 0 0 .25002 0 53.755)" fill="url(#h)" stroke-width="3" stroke-linecap="round" stroke="#212121"/><path d="M322.797 148.84c17.53 0 31.747 14.202 31.747 31.747 0 17.53-14.217 31.747-31.747 31.747-17.545 0-31.762-14.217-31.762-31.747 0-17.545 14.217-31.747 31.762-31.747zm0 0" transform="matrix(.25002 0 0 .25002 0 53.755)" fill="url(#i)" stroke-width="3" stroke-linecap="round" stroke="#212121"/><path d="M13.23 11.586a5.279 5.279 0 0 0-5.293 5.289v1.324c0-2.93 2.36-5.293 5.293-5.293h100.551a5.282 5.282 0 0 1 5.293 5.293v-1.324c0-2.93-2.36-5.29-5.293-5.29zm0 0" fill="#fff" fill-opacity=".392"/><path d="M13.23 112.137a5.28 5.28 0 0 1-5.293-5.293v-1.324a5.28 5.28 0 0 0 5.293 5.293h100.551a5.28 5.28 0 0 0 5.293-5.293v1.324a5.28 5.28 0 0 1-5.293 5.293zm0 0" fill-opacity=".235"/><path d="M51.676 28.145a2.632 2.632 0 0 0-2.723 2.632v34.399c0 2.039 2.219 3.304 3.973 2.265L82.03 50.242c1.727-1.02 1.727-3.515 0-4.535l-29.105-17.2a2.652 2.652 0 0 0-1.25-.362zm0 0" fill="url(#j)"/><path d="M51.535 28.145a2.629 2.629 0 0 0-2.582 2.632v1.309a2.632 2.632 0 0 1 3.973-2.27l29.105 17.2c.649.382 1.051.972 1.215 1.613a2.629 2.629 0 0 0-1.215-2.922l-29.105-17.2a2.652 2.652 0 0 0-1.39-.362zm0 0" fill="#fff" fill-opacity=".588"/><path d="M51.535 67.82a2.631 2.631 0 0 1-2.582-2.632v-1.31a2.635 2.635 0 0 0 2.723 2.634c.441-.016.87-.14 1.25-.367l29.105-17.2a2.59 2.59 0 0 0 1.215-1.61 2.633 2.633 0 0 1-1.215 2.923L52.926 67.457a2.652 2.652 0 0 1-1.25.363h-.14zm0 0" fill-opacity=".235"/><path d="M51.688 27.77a3.012 3.012 0 0 0-3.11 3.007v34.399c0 2.308 2.547 3.765 4.54 2.59l29.105-17.2c1.957-1.156 1.957-4.023 0-5.18L53.117 28.188a2.98 2.98 0 0 0-1.43-.417zm-.028.75c.38.011.75.12 1.074.312l29.106 17.2a2.244 2.244 0 0 1 0 3.886L52.734 67.121a2.247 2.247 0 0 1-3.406-1.945V30.777a2.25 2.25 0 0 1 2.332-2.257zm0 0" fill="#212121"/><path d="M7.938 83.617h111.136v1.43H7.938zm0 0" fill-opacity=".471"/><path d="M7.938 82.367h111.136v1.356H7.938zm0 0" fill-opacity=".235"/><path d="M7.938 85.012h111.136v1.36H7.938zm0 0" fill="#f8f8f8" fill-opacity=".392"/><path d="M13.23 11.21a5.661 5.661 0 0 0-5.668 5.665v89.969a5.665 5.665 0 0 0 5.668 5.668h100.551a5.665 5.665 0 0 0 5.668-5.668V16.875a5.661 5.661 0 0 0-5.668-5.664zm0 .75h100.551a4.896 4.896 0 0 1 4.918 4.915v89.969a4.9 4.9 0 0 1-4.918 4.918H13.231a4.9 4.9 0 0 1-4.918-4.918V16.875a4.896 4.896 0 0 1 4.917-4.914zm0 0" fill="#212121"/></svg>
